X:198
T:Douglas Hornpipe
T:Huntsman's Hornpipe
R:hornpipe
B:The Athole Colletion
Z:arr. Terry Traub 6-30-2011
M:C|
L:1/8
K:C
GE |\
"C"C2 c4 Bc | "G"dBGB "C"c2cd | "C"ecec "F"fdfd | "Dm"gece "G"dBGE | "C"C2 c4 Bc |
"G"dBGB "Am"c2Bc | "G"dBdB "D7"cAG^F | "G"G2 B2 G2 :: ef | "C"gfed cBAG | "F"A2 F2 F2 fg |
"Dm"agfe "(D7)"dcBA | "G"B2 G2 G2 ef | "C"gege "F"fafa | "C"gege "F"fafa | "C"geaf "G7"edcB | "C"c2 e2 c2 :|
